X: 33953
T: Redford Cottage
R: jig
M: 6/8
K: Dmajor
e|:f2A ABA|B<GB Aef|g2e f2d|efd cBA|
f2A ABA|B<GB g3|Bed cBc|1 d3 d2e:|2 d3 dfg||
a2f g2e|fag fed|g2e f2d|efd cBA|
a2f g2e|fag fed|Bed cBc|d3 dfg|
a2f g2e|fag fed|g2e f2d|efd cBA|
f2A ABA|B<GB g3|Bed cBc|d3 d2e||
|:fef ABA|Bdc BAB|ABA fed|efd cBA|
fef ABA|B<GB g3|Bed cBc|1 d3 d2e:|2 d3 dfg||
aAa fed|f<ag fed|gag fed|efd cBA|
aAa fed|f<ag fed|Bed cBc|d3 dfg|
aAa fed|f<ag fed|gag fed|efd cBA|
f2A ABA|B<GB g3|Bed cBc|d3- d3||

